X:110
T:Morpeth Lasses
Z:Jack Campin, http://www.campin.me.uk/
S:Northumbrian Minstrelsy
M:C
L:1/8
K:A Minor
G|ABcB EAAc|BAGd BGGB|ABcB EAAe|dBGB cAA:|
e|agea gea2|gedg BGdB|agea gea2|gegB A2Ae| 
  agea gea2|gedg BGdB|AcBd ceda|gegB A2A:|

